X:1
T:Étude in E Minor (for violin)
T:Opus 25 No. 5
T:Frédéric François Chopin (1810 - 1849)
T:(Arr. Jahel Riofrío Vera)
T:Public Domain
T:Public Domain
T:Public Domain
C:Frédéric François Chopin
Z:Public Domain
L:1/8
Q:1/4=184
M:3/4
K:G
V:1 treble nm="Violín" snm="Vln."
V:1
"^Vivace" B2 | ^A<B ^d<e f<g | a<g ^e<f a<g | a<g ^e<f g<f | g<f ^d<e ^c<=d | ^c<d f<g ^a<b | %6
 c'<b ^g<a b<c' | ^g<a a<b f<=g | ^g<a ^e<f f<=g | ^A<B ^d<e f<g | a<g ^e<f a<g | a<g ^e<f g<f | %12
 g<f ^d<e _e<=d | e<=f ^a<b ^c'<d' | ^c'<d' c'<=c' c'<b | ^a<b ^g<=a ^c<d | ^c<d ^a<b ^g<=a | %17
 f<g ^a<b a<b | ^a<b ^c'<d' b<=c' | ^a<b ^g<=a ^c<d | ^c<d ^d<e c<=d | ^A<B f<g ^a<b | %22
 ^a<b ^c'<d' b<=c' | ^a<b ^g<=a ^c<d | ^c<d ^d<e c<=d | B^c df g^a | b^c' d'f' g'^a' | %27
 b'g' g'd' d'b | bg gd dB |{/^A} B2{/^d} e2{/f} g2 |{/a} g2{/^e} f2{/a} g2 | %31
{/a} g2{/^e} f2{/g} f2 |{/g} f2{/^d} e2{/^c} =d2 |{/^c} d2{/f} g2{/^a} b2 | %34
{/c'} b2{/^g} a2{/b} c'2 |{/^g} a2{/^a} b2{/f} =g2 |{/^g} a2{/^e} f2{/f} =g2 | B^d ef ga | %38
 g^e fa ga | g^e fg fg | f^d e_e =d=e | =f^a b^c' d'b | c'2 e'3 !fermata!z | b2 e'3 !fermata!z | %44
 b2 _e'3 !fermata!z ||[K:E][Q:1/4=168]"^Più lento" B4 c2 | c4 B2 | G2 G2 A2 | A4 G2 | E2 D2 C2 | %50
 B,2 E2 G2 | B2 d2 c2 | B2 _B2 A2 | G2 B3 c | c4 B2 | G2 G3 A | A4 G2 | E2 D2 C2 | B,4 C2 | D4 D2 | %60
 G6 | A6 | G3 A G2 | F4 B2 | E6 | a6 | g3 a g2 | f4 b2 | e6 | A,2 B,2 =C2 | A2 B2 =c2 | C4 F2 | %72
 B,6 | B,2 B2 _B2 | B,2 _B2 A2 | B,2 A2 G2 | B,2 G2 =G2 | E2 F2 =G2 | =G2 F2 E2 | E2 E2 E2 | %80
 E2[Q:1/4=158]"^poco rit." D2[Q:1/4=158]"^148" B,2 |[Q:1/4=168]"^a tempo" B2 B3 c | c4 B2 | %83
 G2 G2 B>A | A4 G2 | E2 D2 C2 | B,2 E2 G2 | B2 d2 c2 | B2[Q:1/4=157]"^poco rit." _B2 A2 | %89
[Q:1/4=168]"^a tempo" B2 B2 d>c | c4 B2 | G2 G2 B>A | A4 G2 | E2 D2 C2 | B,2 E2 G2 | B4 A>G | G6 | %97
[Q:1/4=157]"_smorz." B6[Q:1/4=147]"_147"[Q:1/4=137]"_137" || %98
[K:G][Q:1/4=184]"^Tempo I" ^A<B ^d<e f<g | a<g ^e<f a<g | a<g ^e<f g<f | g<f ^d<e _e<=d | %102
 ^c<d f<g ^a<b | c'<b ^g<a b<c' | ^g<a a<b f<=g | ^g<a ^e<f f<=g | ^A<B ^d<e f<g | a<g ^e<f a<g | %108
 a<g ^e<f g<f | g<f ^d<e _e<=d | e<=f ^a<b ^c'<d' | ^c'<d' b<=c' ^a<b | ^a<b ^g<=a ^a<b | %113
 ^c'<d' b<=c' ^A<B | ^d<e f<g f<g | f<g ^g<a f<=g | f<g ^e<f ^A<B | ^A<B B<c A<B | ^d<e f<g f<g | %119
 f<g ^g<a f<=g | f<g ^e<f ^A<B | ^A<B B<c A<B | ^D<E F<G ^A<B | ^d<e f<g ^a<b | f2 e'3 !fermata!z | %125
 z6 | B2 e'3 !fermata!z | A4 G2- | G2 c4 | B2 e'4- | e'6 | _e'6- | e'4 z2 | A<^G- G4 | A<^G- G4 | %135
 A<^G A<G- G2 | A<^G A<G- G2 | A<T^G- G4- | G6- | G6 | F2 ^G2 B2 | A2 ^G2 E2- | E6- | E6- | E4 F2 | %145
 ^G2 B2 e2 | f2 ^g2 b2 | e'2 f'2 ^g'2- | g'4- g'2 |] %149

